pico_icons/symbolic/status/auth-sim-missing-symbolic.svg

<?xml version="1.0" encoding="UTF-8"?>
<svg height="16px" viewBox="0 0 16 16" width="16px" xmlns="http://www.w3.org/2000/svg">
    <g fill="#2e3436">
        <path d="m 4 0 c -2 0 -2 2 -2 2 v 12 c 0 2 2 2 2 2 h 8 s 2 0 2 -2 v -11 l -3 -3 z m 3.753906 3 c 0.019532 0 0.039063 0.011719 0.058594 0.011719 c 2.160156 -0.089844 4.0625 1.5625 4.183594 3.746093 l 0.003906 0.027344 v 0.027344 c 0 0.046875 -0.003906 0.085938 -0.007812 0.132812 c 0.003906 0.011719 0.007812 0.054688 0.007812 0.054688 l -0.003906 1 h -0.121094 c -0.074219 0.328125 -0.1875 0.636719 -0.355469 0.917969 c -0.015625 0.03125 -0.039062 0.054687 -0.054687 0.082031 h 0.53125 v 2 h 0.003906 v 2 c 0 1 -1 1 -1 1 l -1.003906 -0.003906 v -0.984375 c -0.007813 1.089843 -0.910156 1.988281 -1.996094 1.988281 c -1.09375 0 -2 -0.90625 -2 -2 c 0 -0.382812 0.132812 -0.710938 0.335938 -1 h -0.335938 v -1 h -2.003906 v -2 h 2.003906 v -1 h -0.003906 v 0.007812 h -2 l 0.003906 -1.007812 s 0.003906 -0.054688 0.007812 -0.09375 c -0.03125 -2.109375 1.671876 -3.789062 3.746094 -3.902344 z m 4.242188 8 h -1.996094 v 0.003906 h 1.996094 z m -3.332032 -5.867188 c 0.71875 0.261719 1.273438 0.929688 1.324219 1.730469 c 0 -0.003906 0.003907 -0.003906 0.003907 -0.011719 c -0.054688 -0.796874 -0.601563 -1.457031 -1.328126 -1.722656 z m 1 6.867188 c 0.199219 0.285156 0.332032 0.613281 0.332032 0.988281 v -0.988281 z m -5.667968 0.003906 h 2 v 2 l -0.996094 -0.003906 c -1 0 -1 -1 -1 -1 z m 0 0" fill-opacity="0.34902"/>
        <path d="m 8.152344 4.007812 c -0.4375 -0.023437 -0.882813 0.046876 -1.300782 0.222657 c -1.117187 0.460937 -1.851562 1.558593 -1.851562 2.769531 h 2 c 0 -0.40625 0.242188 -0.769531 0.617188 -0.921875 c 0.375 -0.15625 0.800781 -0.074219 1.089843 0.214844 c 0.289063 0.289062 0.371094 0.714843 0.214844 1.089843 s -0.515625 0.617188 -0.921875 0.617188 c -0.550781 0 -1 0.449219 -1 1 v 2 h 2 v -1.179688 c 0.785156 -0.28125 1.441406 -0.875 1.769531 -1.671874 c 0.464844 -1.117188 0.207031 -2.414063 -0.648437 -3.269532 c -0.535156 -0.535156 -1.242188 -0.835937 -1.96875 -0.871094 z m -0.152344 7.992188 c -0.550781 0 -1 0.449219 -1 1 s 0.449219 1 1 1 s 1 -0.449219 1 -1 s -0.449219 -1 -1 -1 z m 0 0"/>
    </g>
</svg>

<svg xmlns="http://www.w3.org/2000/svg" width="16" height="16" version="1.1">
 <path opacity=".35" style="fill:#fff1e8" d="M 4,0 C 2,0 2,2 2,2 v 12 c 0,2 2,2 2,2 h 8 c 0,0 2,0 2,-2 V 3 L 11,0 Z m 3.755,3.002 c 0.02,-10e-4 0.037,0.009 0.057,0.008 2.16,-0.09 4.063,1.565 4.186,3.746 L 12,6.786 V 6.813 C 12,6.858 11.995,6.899 11.994,6.943 11.994,6.958 12,7 12,7 L 11.998,8.002 H 11.875 A 3.248,3.248 0 0 1 11.521,8.92 c -0.017,0.03 -0.039,0.054 -0.057,0.082 h 0.534 V 11 H 12 v 2 c 0,1 -1,1 -1,1 L 9.998,13.998 V 13.014 A 2.014,2.014 0 0 1 8,15 C 6.907,15 6,14.093 6,13 6,12.618 6.134,12.288 6.336,12 H 6 V 11.002 H 3.998 v -2 H 6 V 8 H 5.998 v 0.006 h -2 L 4,7 4.01,6.906 C 3.976,4.797 5.68,3.118 7.756,3.002 Z M 11.998,11 H 10 v 0.002 h 1.998 z M 8.666,5.13 C 9.384,5.396 9.937,6.063 9.99,6.865 9.99,6.858 9.992,6.858 9.992,6.852 9.938,6.053 9.392,5.392 8.666,5.131 Z M 9.664,12 c 0.199,0.285 0.331,0.613 0.334,0.99 V 12 Z m -5.666,0.002 h 2 v 2 L 5,14 C 4,14 4,13 4,13 Z"/>
 <path style="fill:#fff1e8" d="M 8.152,4.006 A 2.992,2.992 0 0 0 6.852,4.229 3.005,3.005 0 0 0 5,7 H 7 C 7,6.593 7.24,6.232 7.617,6.076 A 0.994,0.994 0 0 1 8.707,6.293 0.994,0.994 0 0 1 8.923,7.383 0.994,0.994 0 0 1 8,8 1,1 0 0 0 7,9 v 2 H 9 V 9.82 A 2.998,2.998 0 0 0 10.771,8.148 3.006,3.006 0 0 0 10.121,4.878 3.001,3.001 0 0 0 8.151,4.006 Z M 8,12 a 1,1 0 0 0 -1,1 1,1 0 0 0 1,1 1,1 0 0 0 1,-1 1,1 0 0 0 -1,-1 z"/>
</svg>
